X: 208
T:Zer Shirim
C: Moshiko Halevy 1984
O:Israeli
F: https://www.youtube.com/watch?v=yaiD8K9psjs
L:1/8
M:4/4
Q:1/4=120
K:Dm
"Dm"A2 de f2 ed    | "F"c2 Bc "Dm"A2 BA | "Gm"GGGG G2 FG| "Dm"A4 A4   |\
"Dm"A2 de f2 ed    | "C"g2 fe "Dm"d2 z d| d2 d2 c2 ce   | d8          |
"Dm"A2 de f2 ed    | "F"c2 Bc "Dm"A2 BA | "Gm"G6 FG     | "Dm"A8      |\
A2 de f2 ed        | "C"g2 fe "Dm"a4    | "Gm"ba g4 eg  | "Dm"a4 z2 ba|
"Gm"g2 dg "Dm"f2 ed| "F"c2 Bc "Dm"A4    | d2 ef "C"g2 fe| "Dm"f4 z2 ba|\
"Gm"g2 dg "Dm"f2 ed| "F"c2 Bc "Dm"A4    | A3 A "Am"e2 dc| "Dm"d4 d4   |



